X: 4889
T: Braes Of Tulliemet, The
R: strathspey
M: 4/4
K: Edorian
E<BB>A B>AB<d|F<DA>D B>DA>F|E<BB>A B>AB<e|d>BA<F E2E>D|
E<BB>A B>AB<d|F<DA>D B>DA>F|E<BB>A B>AB<e|d>BA<F E2E>g||
e>Be<g e>Be<g|d>Ad<f d>Ad<f|e>Be<g e>Be<g|d>BA<F E2E>g|
e>Be<g B>eg>e|d>Ad<f A>df>d|e<BB>c d>ef>e|d>BA<F E2E>D||

